X:110
T:Cheerliy Man (Men)
M:C|
L:1/8
Q:1/4=100
K:F
F2FF F2F2|F2F2 DEF2|C2EF G2B2|A2 G2 B2(3BAB|F4 z4|
C2FG A2c2|B2A2 B2(3cBc|d6B2|AcAF GB(3GFE|F4 z4||
